CommonLib.Web/CommonLib.Web/wwwroot/icons/regular/bread-loaf.svg

<svg xmlns="http://www.w3.org/2000/svg" viewBox="0 0 640 512"><path d="M400 32H240C107.45 32 0 103.63 0 192c0 35.35 26.86 64 60 64h4v192a32 32 0 0 0 32 32h448a32 32 0 0 0 32-32V256h4c33.14 0 60-28.65 60-64 0-88.37-107.45-160-240-160zm20 176h-52v224H112V208H60c-5.79 0-12-6.43-12-16 0-59.66 89.72-112 192-112s192 52.34 192 112c0 9.57-6.21 16-12 16z"/></svg>

<svg xmlns="http://www.w3.org/2000/svg" viewBox="0 0 640 512"><!--! Font Awesome Pro 6.2.0 by @fontawesome - https://fontawesome.com License - https://fontawesome.com/license (Commercial License) Copyright 2022 Fonticons, Inc. --><path d="M400 32h-160C107.5 32 0 103.6 0 192c0 35.38 26.88 64 60 64H64v192c0 17.62 14.38 32 32 32h448c17.62 0 32-14.38 32-32V256h4C613.1 256 640 227.4 640 192C640 103.6 532.5 32 400 32zM420 208H368v224h-256v-224H60C54.25 208 48 201.6 48 192c0-59.62 89.75-112 192-112s192 52.38 192 112C432 201.6 425.8 208 420 208z"/></svg>
